src/library/svgl/arc/arc-dark.svg

<svg width="114" height="46" viewBox="0 0 114 46" fill="none" xmlns="http://www.w3.org/2000/svg"><path d="M0 23C0 10.2983 10.2621 3.05934e-05 22.9192 3.05934e-05C35.5764 3.05934e-05 45.8385 10.2983 45.8385 23V45.3426C45.8385 45.7067 45.5462 46 45.1833 46H33.3971C33.2234 46 33.0568 45.9307 32.9339 45.8074C32.811 45.6841 32.742 45.5169 32.742 45.3426V23C32.742 21.0504 32.1659 19.1446 31.0866 17.5235C30.0072 15.9025 28.4731 14.639 26.6782 13.8929C24.8834 13.1469 22.9083 12.9517 21.0029 13.332C19.0975 13.7124 17.3472 14.6512 15.9735 16.0298C14.5997 17.4083 13.6642 19.1648 13.2852 21.0769C12.9062 22.9891 13.1007 24.9711 13.8441 26.7723C14.5876 28.5735 15.8466 30.113 17.462 31.1961C19.0773 32.2793 20.9765 32.8574 22.9192 32.8574H30.4501C30.813 32.8574 31.1052 33.1507 31.1052 33.5148V45.3426C31.1052 45.7067 30.8111 46 30.4501 46H22.9192C10.2621 46 0 35.7017 0 23ZM82.0203 4.19944C82.3641 3.90811 82.3373 3.35994 81.9496 3.13186C78.4443 1.07452 74.4553 -0.00663037 70.3945 3.05934e-05C57.7374 3.05934e-05 47.4753 10.2983 47.4753 23V45.3426C47.4753 45.7067 47.7694 46 48.1304 46H59.9166C60.2795 46 60.5717 45.7067 60.5717 45.3426V23C60.5713 21.3684 60.9745 19.7622 61.7451 18.3254C62.5157 16.8887 63.6297 15.6664 64.987 14.7682C66.3444 13.87 67.9027 13.324 69.5222 13.1791C71.1417 13.0342 72.7716 13.2949 74.2659 13.938C74.3517 13.9758 74.444 13.9962 74.5376 13.998C74.6313 13.9999 74.7243 13.9831 74.8115 13.9487C74.8986 13.9144 74.9781 13.863 75.0455 13.7977C75.1128 13.7324 75.1666 13.6544 75.2037 13.5681C76.7034 9.94641 79.0406 6.735 82.0222 4.19944H82.0203ZM97.8976 3.05934e-05C103.834 -0.00813064 109.54 2.303 113.807 6.44386C114.065 6.69302 114.063 7.10702 113.807 7.36194L105.48 15.7205C105.352 15.8445 105.182 15.9144 105.004 15.9154C104.826 15.9165 104.654 15.8487 104.525 15.7263C103.146 14.4609 101.436 13.6165 99.5957 13.2921C97.7554 12.9677 95.861 13.1768 94.1349 13.8949C92.4088 14.6129 90.9226 15.8101 89.8507 17.346C88.7788 18.8819 88.1656 20.6928 88.0832 22.5661C88.0008 24.4394 88.4525 26.2974 89.3854 27.9221C90.3182 29.5468 91.6935 30.8708 93.3498 31.7388C95.0061 32.6067 96.8748 32.9825 98.7365 32.8222C100.598 32.6618 102.376 31.9719 103.86 30.8334C103.991 30.7296 104.155 30.677 104.322 30.6855C104.488 30.694 104.646 30.7629 104.766 30.8794L113.127 39.2706C113.19 39.3319 113.239 39.4054 113.272 39.4865C113.305 39.5677 113.321 39.6547 113.319 39.7424C113.318 39.83 113.298 39.9163 113.262 39.996C113.225 40.0758 113.173 40.1472 113.108 40.2059C108.919 43.946 103.505 46.0084 97.8976 46C85.2404 46 74.9783 35.7017 74.9783 23C74.9783 10.2983 85.2404 3.05934e-05 97.8976 3.05934e-05Z" fill="white"/></svg>

<svg width="114" height="46" viewBox="0 0 114 46" fill="none" xmlns="http://www.w3.org/2000/svg"><path d="M0 23C0 10.298 10.262 0 22.92 0c12.656 0 22.919 10.298 22.919 23v22.343a.655.655 0 0 1-.656.657H33.397a.654.654 0 0 1-.655-.657V23c0-1.95-.576-3.855-1.655-5.477a9.83 9.83 0 0 0-4.409-3.63 9.79 9.79 0 0 0-10.705 2.137 9.87 9.87 0 0 0-2.688 5.047 9.9 9.9 0 0 0 .56 5.695 9.85 9.85 0 0 0 3.617 4.424 9.8 9.8 0 0 0 5.457 1.661h7.531c.363 0 .655.294.655.658v11.828a.656.656 0 0 1-.655.657h-7.53C10.261 46 0 35.702 0 23M82.02 4.2c.344-.292.317-.84-.07-1.068A22.75 22.75 0 0 0 70.394 0C57.738 0 47.476 10.298 47.476 23v22.343c0 .364.294.657.655.657h11.787a.655.655 0 0 0 .655-.657V23c0-1.632.402-3.238 1.173-4.675a9.85 9.85 0 0 1 3.242-3.557 9.8 9.8 0 0 1 9.279-.83.71.71 0 0 0 .938-.37A24.7 24.7 0 0 1 82.022 4.2zM97.898 0a22.8 22.8 0 0 1 15.909 6.444.643.643 0 0 1 0 .918l-8.327 8.359a.69.69 0 0 1-.955.005 9.79 9.79 0 0 0-10.39-1.831 9.83 9.83 0 0 0-4.284 3.451 9.88 9.88 0 0 0 3.499 14.393 9.79 9.79 0 0 0 10.51-.906.69.69 0 0 1 .906.046l8.361 8.392a.63.63 0 0 1 .192.471.63.63 0 0 1-.211.464A22.8 22.8 0 0 1 97.898 46c-12.658 0-22.92-10.298-22.92-23S85.24 0 97.898 0" fill="#fff"/></svg>
